X: 4140
T: RYAN'S RANT
R: Reel.
%R: reel
B: James Kerr "Merry Melodies" v.4 p.17 #140
Z: 2016 John Chambers <jc:trillian.mit.edu>
M: C
L: 1/8
K: Am
|:\
A2eA aA (eA) | A2ec dB (GB) |\
A2(eA) aAe^f | g2(ge) dBGB ::\
(3(cBA) (eA) (3(cBA) (eA) |
(3(cBA) (ec) dBGB |\
(3(cBA) (eA) (3(cBA) (eA) | a^fge dBGB ::\
A2(eA) (aA)(eA) | A2(ec) dBGB |
A2(eA) (aA)(eA) | g^fge dBGB ::\
ceAe ceAe | ceAe dBGB |\
ceAe ceAe | a^fge dB"_D.C."GB :|

%%sep 1 1 500
%%sep 1 1 500

